X:77
C:Page 39
T:Hornpipe. MBe.77, A
S:Matthew Betham MS, Towcett Cumbria, 1815
O:England;Cumbria;Towcett
Z:VMP – Hugh Taylor, 2012
M:2/4
L:1/8
Q:1/4=100
R:.Hornpipe
W:All notes shown are as written, leaving the player to interpret.
N:Key signature clearly written as D, but G seems to makes more sense.
K:D
d/c/”^key sig should be G?”|BdGG B/G/|FADD d/c/|BdGG d2|e/g/f/a/ g/e/d/c/|
BdGG B/G/|FADD d/c/|B/d/e/f/ g/d/e/c/|B2 GG:|
|:ga|b b2 a/f/d/f/|a a2 g/f/e/d/|e/f/g/e/ a/g/f/g/|fdd ga|
b b2 a/f/d/f/|a a2 g/f/e/d/|e/f/g/e/ d/e/c/d/|B2 GG:|
|:B/c/|d/B/B/B/ G/B/B/B/|d/B/B/B/ G/B/B/B/|c/A/A/A/ F/A/A/A/|c/A/A/A/ F/A/A/A/|
d/B/B/B/ e/c/c/c/|e/d/e/f/ g/f/g/a/|b/g/a/f/ g/e/d/c/|B2 GG:|

